public/img/phone-icon.svg

<svg width="58" height="58" viewBox="0 0 58 58" fill="none" xmlns="http://www.w3.org/2000/svg">
<g clip-path="url(#clip0_2_69)">
<path d="M15.6951 22.444C17.6833 30.6747 22.2693 38.1258 28.7217 43.6089L35.7874 39.2601C36.6867 38.7066 37.7478 38.7399 38.5878 39.2414C41.2649 40.8928 44.2544 42.1526 47.4972 42.9244C48.1852 43.0882 48.78 43.5186 49.1507 44.1209C49.5214 44.7232 49.6376 45.4481 49.4739 46.1361L47.3127 55.2158C47.149 55.9038 46.7186 56.4986 46.1163 56.8693C45.514 57.24 44.7891 57.3563 44.1011 57.1925C32.4047 54.4085 22.2933 47.0922 15.9912 36.853C9.68922 26.6138 7.7128 14.2906 10.4968 2.59419C10.6605 1.90617 11.0909 1.31138 11.6932 0.940675C12.2955 0.569968 13.0204 0.453708 13.7085 0.617472L22.7881 2.77862C23.4762 2.94239 24.0709 3.37276 24.4416 3.97506C24.8124 4.57737 24.9286 5.30226 24.7649 5.99029C23.993 9.23303 23.7709 12.4696 24.0392 15.6035C24.1084 16.5794 23.6601 17.5417 22.7608 18.0952L15.6951 22.444Z" fill="#00E0FF" fill-opacity="0.65"/>
<path d="M15.6951 22.444C17.6833 30.6747 22.2693 38.1258 28.7217 43.6089L35.7874 39.2601C36.6867 38.7066 37.7478 38.7399 38.5878 39.2414C41.2649 40.8928 44.2544 42.1526 47.4972 42.9244C48.1852 43.0882 48.78 43.5186 49.1507 44.1209C49.5214 44.7232 49.6376 45.4481 49.4739 46.1361L47.3127 55.2158C47.149 55.9038 46.7186 56.4986 46.1163 56.8693C45.514 57.24 44.7891 57.3563 44.1011 57.1925C32.4047 54.4085 22.2933 47.0922 15.9912 36.853C9.68922 26.6138 7.7128 14.2906 10.4968 2.59419C10.6605 1.90617 11.0909 1.31138 11.6932 0.940675C12.2955 0.569968 13.0204 0.453708 13.7085 0.617472L22.7881 2.77862C23.4762 2.94239 24.0709 3.37276 24.4416 3.97506C24.8124 4.57737 24.9286 5.30226 24.7649 5.99029C23.993 9.23303 23.7709 12.4696 24.0392 15.6035C24.1084 16.5794 23.6601 17.5417 22.7608 18.0952L15.6951 22.444Z" fill="url(#paint0_linear_2_69)" fill-opacity="0.8"/>
</g>
<defs>
<linearGradient id="paint0_linear_2_69" x1="34.462" y1="5.55724" x2="23.3475" y2="52.2527" gradientUnits="userSpaceOnUse">
<stop stop-color="#55FFFF"/>
<stop offset="1" stop-color="#00ECFF" stop-opacity="0"/>
</linearGradient>
<clipPath id="clip0_2_69">
<rect width="48" height="48" fill="white" transform="translate(11.1143) rotate(13.3885)"/>
</clipPath>
</defs>
</svg>

<svg width="58" height="58" fill="none" xmlns="http://www.w3.org/2000/svg"><g clip-path="url(#a)"><path d="M15.695 22.444a40.258 40.258 0 0 0 13.027 21.165l7.065-4.349c.9-.553 1.96-.52 2.8-.019a30.294 30.294 0 0 0 8.91 3.683 2.667 2.667 0 0 1 1.977 3.212l-2.161 9.08a2.666 2.666 0 0 1-3.212 1.977A45.334 45.334 0 0 1 10.497 2.594 2.666 2.666 0 0 1 13.709.617l9.08 2.162a2.666 2.666 0 0 1 1.976 3.211 30.292 30.292 0 0 0-.726 9.614 2.674 2.674 0 0 1-1.278 2.491l-7.066 4.349Z" fill="#00E0FF" fill-opacity=".65"/><path d="M15.695 22.444a40.258 40.258 0 0 0 13.027 21.165l7.065-4.349c.9-.553 1.96-.52 2.8-.019a30.294 30.294 0 0 0 8.91 3.683 2.667 2.667 0 0 1 1.977 3.212l-2.161 9.08a2.666 2.666 0 0 1-3.212 1.977A45.334 45.334 0 0 1 10.497 2.594 2.666 2.666 0 0 1 13.709.617l9.08 2.162a2.666 2.666 0 0 1 1.976 3.211 30.292 30.292 0 0 0-.726 9.614 2.674 2.674 0 0 1-1.278 2.491l-7.066 4.349Z" fill="url(#b)" fill-opacity=".8"/></g><defs><linearGradient id="b" x1="34.462" y1="5.557" x2="23.348" y2="52.253" gradientUnits="userSpaceOnUse"><stop stop-color="#5FF"/><stop offset="1" stop-color="#00ECFF" stop-opacity="0"/></linearGradient><clipPath id="a"><path fill="#fff" transform="rotate(13.389 5.557 47.347)" d="M0 0h48v48H0z"/></clipPath></defs></svg>
